X: 25759
T: Mary Shore
R: jig
M: 6/8
K: Gmajor
G3 AGE|DGB dba|ged edB|dBG A3|G3 AGE|
DGB deg|1 edB dBG|AGF GDE:|2 edB dBG|AGF G3||
g3 fed|efg dBG|DGB DGB|dBG ABd|
[1 g3 fed|efg dBG|cBc Adc|BGF GBd:|
[2 g3 aga|bge dBA|BGE DGB|AGF G3||

